icons/category/icon_category-medicine_m_black.svg

<svg width="24" height="24" viewBox="0 0 24 24" xmlns="http://www.w3.org/2000/svg"><g fill="none" fill-rule="evenodd"><path d="M0 0h24v24H0z"/><path d="M21 12.949c1.14-.232 2-1.242 2-2.449C23 9.122 21.879 8 20.5 8a2.503 2.503 0 0 0-2.5 2.5c0 1.207.86 2.217 2 2.449V16.5c0 3.033-2.468 5.5-5.5 5.5A5.506 5.506 0 0 1 9 16.5v-1.59c2.833-.478 5-2.942 5-5.91V1h-3v1h2v7c0 2.757-2.243 5-5 5s-5-2.243-5-5V2h2V1H2v8c0 3.309 2.691 6 6 6v1.5c0 3.584 2.916 6.5 6.5 6.5s6.5-2.916 6.5-6.5v-3.551zM19 10.5c0-.827.673-1.5 1.5-1.5s1.5.673 1.5 1.5-.673 1.5-1.5 1.5-1.5-.673-1.5-1.5z" fill="#0B1F35"/><path fill="#0B1F35" opacity=".3" d="M2.5 9h11v1h-11z"/></g></svg>

<?xml version="1.0" encoding="UTF-8"?>
<svg width="24px" height="24px" viewBox="0 0 24 24" version="1.1" xmlns="http://www.w3.org/2000/svg" xmlns:xlink="http://www.w3.org/1999/xlink">
    <!-- Generator: Sketch 48.2 (47327) - http://www.bohemiancoding.com/sketch -->
    <title>icon_category-medicine_m_black</title>
    <desc>Created with Sketch.</desc>
    <defs></defs>
    <g id="mobile" stroke="none" stroke-width="1" fill="none" fill-rule="evenodd" transform="translate(-1247.000000, -354.000000)">
        <g id="Headings" transform="translate(64.000000, 77.000000)">
            <g id="icon_category_farmacy__m__white" transform="translate(1183.000000, 277.000000)">
                <g id="ungroup">
                    <rect id="Rectangle-path" x="0" y="0" width="24" height="24"></rect>
                    <g id="a1" opacity="0.4"></g>
                    <g id="Group" opacity="0.75" transform="translate(6.000000, 1.000000)">
                        <g opacity="0.4"></g>
                    </g>
                    <path d="M21,12.949 C22.14,12.717 23,11.707 23,10.5 C23,9.122 21.879,8 20.5,8 C19.121,8 18,9.122 18,10.5 C18,11.707 18.86,12.717 20,12.949 L20,16.5 C20,19.533 17.532,22 14.5,22 C11.468,22 9,19.533 9,16.5 L9,14.91 C11.833,14.432 14,11.968 14,9 L14,1 L11,1 L11,2 L13,2 L13,9 C13,11.757 10.757,14 8,14 C5.243,14 3,11.757 3,9 L3,2 L5,2 L5,1 L2,1 L2,9 C2,12.309 4.691,15 8,15 L8,16.5 C8,20.084 10.916,23 14.5,23 C18.084,23 21,20.084 21,16.5 L21,12.949 L21,12.949 Z M19,10.5 C19,9.673 19.673,9 20.5,9 C21.327,9 22,9.673 22,10.5 C22,11.327 21.327,12 20.5,12 C19.673,12 19,11.327 19,10.5 L19,10.5 Z" id="Shape" fill="#0B1F35"></path>
                    <rect id="Rectangle-path" fill="#0B1F35" opacity="0.3" x="2.5" y="9" width="11" height="1"></rect>
                </g>
            </g>
        </g>
    </g>
</svg>
